X:86
T:Languor of Love, The
T:Tha mi tinn leis a'Ghaol
R:Slow Air
S:Simon Fraser Collection
N:No.1
O:Scottish
M:C
L:1/8
Q:1/4=140
K:D
D2 FA d4|c2 d2 B4|A2 Bc d3 e|d3c B2 Az|~F3G A2 g2|f3e d2 zD|
~F3G A3F|G2F2E2D2|D2 FA d4|c2 d2 B4|A2 Bc d3e|d3c B2 Az|
~F3G A2 g2|f3e d2 zD|~F3G A3F|(G2F2)(E2D2)||f3e d3f|c2 d2 B4|
f3e d3f|d3c B2Az|~F3G A2 ag|f3e d2zD|~F3G A3F|G2F2E2D2|
f3e d3f|c2d2 B4|f3e d4|c2 c3/2d/4e/4 d2 Dz|~F3G A2 g2|(3fga (3gfe d4|
d3B A3F|(G2F2)(E2D2)||

